src/pos-icons/nintendo-wiiu.svg

<svg height="24" viewBox="0 0 24 24" width="24" xmlns="http://www.w3.org/2000/svg"><path d="m2 15.96c0 2.23 1.54 3.54 3.79 3.54h12.78c1.9 0 3.43-1.3 3.43-3.18v-9.35c0-1.14-.85-2.37-1.89-2.37h-2.96v7.7c0 5.84-10.18 5.79-10.18.11v-7.91h-2.25c-1.46 0-2.72.91-2.72 2.35zm7.34-4.73c0 4.51 5.32 3.86 5.32.71v-7.44h-5.32z"/></svg>

<?xml version="1.0" encoding="UTF-8"?><!DOCTYPE svg PUBLIC "-//W3C//DTD SVG 1.1//EN" "http://www.w3.org/Graphics/SVG/1.1/DTD/svg11.dtd"><svg xmlns="http://www.w3.org/2000/svg" xmlns:xlink="http://www.w3.org/1999/xlink" version="1.1" id="mdi-nintendo-wiiu" width="24" height="24" viewBox="0 0 24 24"><path d="M2,15.96C2,18.19 3.54,19.5 5.79,19.5H18.57C20.47,19.5 22,18.2 22,16.32V6.97C22,5.83 21.15,4.6 20.11,4.6H17.15V12.3C17.15,18.14 6.97,18.09 6.97,12.41V4.5H4.72C3.26,4.5 2,5.41 2,6.85V15.96M9.34,11.23C9.34,15.74 14.66,15.09 14.66,11.94V4.5H9.34V11.23Z" /></svg>
